X: 31
T:Wedensday  Night. WCl.31
M:2/4
L:1/8
Q:350
S:William Clarke MS,Lincoln,1770.
R:Country Dance.
O:Lincoln
A:England
N:Title spelling as MS....
Z:vmp.Barry Callaghan
K:D
D2 FA|d2f2|edcB|AGFE|D2FA|d2f2|edcd|{d}e4:|!
|:a2 fd|B2 gf|edcB|AGFE|D2 FA|d2f2|fdec|d3:|]
